build/img/icons/youtube.svg

<svg width="35" height="34" viewBox="0 0 35 34" fill="none" xmlns="http://www.w3.org/2000/svg">
<path d="M16.0083 19.4877L21.2675 16.695L16.0083 13.9587V19.4877Z" fill="#6D6D6D"/>
<path d="M17.9354 0C8.55645 0 0.953125 7.61125 0.953125 17C0.953125 26.3887 8.55645 34 17.9354 34C27.3144 34 34.9177 26.3887 34.9177 17C34.9177 7.61125 27.3144 0 17.9354 0ZM27.4174 20.9594C27.1911 22.3935 26.4986 23.1723 25.0421 23.3371C23.4146 23.5212 19.7552 23.606 18.1286 23.606C16.4456 23.606 13.0417 23.5353 11.3425 23.3936C9.88199 23.2719 8.88534 22.4552 8.68456 21.0018C8.53854 19.9434 8.44418 18.6854 8.44418 16.6852C8.44418 14.4585 8.52442 13.5164 8.7128 12.5104C8.98177 11.0749 9.6664 10.3795 11.2292 10.2179C12.8692 10.0479 14.4196 9.96309 17.8882 9.96309C19.584 9.96309 23.24 10.051 24.9288 10.2037C26.4038 10.3371 27.2348 11.2404 27.417 12.6804C27.5441 13.6853 27.6574 15.1239 27.6574 16.6715C27.6578 19.3884 27.4174 20.9594 27.4174 20.9594Z" fill="#6D6D6D"/>
</svg>

<svg viewBox="0 0 35 34" fill="none" xmlns="http://www.w3.org/2000/svg"><path d="M16.008 19.488l5.26-2.793-5.26-2.736v5.529z" fill="#6D6D6D"/><path d="M17.935 0C8.556 0 .953 7.611.953 17s7.603 17 16.982 17c9.38 0 16.983-7.611 16.983-17S27.314 0 17.935 0zm9.482 20.96c-.226 1.433-.918 2.212-2.375 2.377-1.627.184-5.287.269-6.913.269-1.683 0-5.087-.07-6.787-.212-1.46-.122-2.457-.939-2.657-2.392-.146-1.059-.24-2.317-.24-4.317 0-2.226.08-3.169.268-4.175.269-1.435.953-2.13 2.516-2.292 1.64-.17 3.19-.255 6.66-.255 1.695 0 5.351.088 7.04.24 1.475.134 2.306 1.037 2.488 2.477.127 1.005.24 2.444.24 3.992 0 2.716-.24 4.287-.24 4.287z" fill="#6D6D6D"/></svg>
